X:1
T:North Platte, CMD
T:D. Wesley Mylan, 1898
T:North Platte, CMD
T:Public Domain
C:D. Wesley Mylan, 1898
Z:Public Domain
%%score ( 1 2 ) ( 3 4 )
L:1/8
M:3/4
K:Ab
V:1 treble 
V:2 treble 
V:3 bass 
V:4 bass 
V:1
 E2 | [CA]>[DA] [CA]2 [Ec]2 | [FA]>[DF] [CE]2 [CA]2 | [Ec]>[Ec] [=Dc]2 [FA]2 | [GB]4 [Ec]2 | %5
 [Ae]>[Ae] [_Ge]2 [Gc]2 | [FB]>[FA] [DF]2 [=B,A]2 | [CE][EA] [Ac]2 [GB]2 | [EA]4 ||[M:4/4] [Ec]2 | %10
 [Ae]2 [Ge]2 [Ae][Ac][GB][Gc] | (EEFF E2) [Ac]2 | [GB]3 [Ac] [ce]2 [Bd]2 | [Ac]6 E2 | %14
 [EA]3 [GB] [Ac]2 [Ac]2 | [Ad]3 [Ae] [Af]2 [Ad]2 | [Ac]4- [Ac][AB][Ge][EG] | (EEFF E2) |] %18
V:2
 E2 | x6 | x6 | x6 | x6 | x6 | x6 | x6 | x4 ||[M:4/4] x2 | x8 | A6 x2 | x8 | x6 E2 | x8 | x8 | x8 | %17
 A6 |] %18
V:3
 E,2 | [A,,E,]>[A,,F,] [A,,E,]2 [A,,A,]2 | [D,A,]>[F,A,] A,2 A,2 | A,>A, [F,A,]2 [F,C]2 | %4
 [E,E]4 A,2 | [A,C]>[A,C] [A,C]2 [A,E]2 | [D,D]>[D,D] [D,A,]2 [=D,A,]2 | %7
 [E,A,][E,C] [E,E]2 [E,D]2 | [A,,C]4 ||[M:4/4] A,2 | [A,C]2 [B,D]2 [CE][A,E][E,D][E,E] | %11
 ([A,,C][A,,C][D,D][D,D] [A,,C]2) [A,,E]2 | [E,E]3 [E,E] [E,E]2 [G,E]2 | [A,E]6 [A,C]2 | %14
 [A,C]3 [E,D] [A,E]2 [_G,E]2 | [F,F]3 [E,C] [D,D]2 [D,F]2 | %16
 ([E,E]2 [F,=D]2 [A,E])[=D,F][E,B,][E,_D] | (CCDD C2) |] %18
V:4
 E,2 | x6 | x2 A,2 A,2 | A,>A, x4 | x4 A,2 | x6 | x6 | x6 | x4 ||[M:4/4] A,2 | x8 | x8 | x8 | x8 | %14
 x8 | x8 | x8 | A,,6 |] %18

